X: 10931
T: COTILLION No. 12. tune 4
C:
%R: march, reel
B: Elias Howe "The Musician's Companion" Part 1 1842 p.93 #1
S: http://imslp.org/wiki/The_Musician's_Companion_(Howe,_Elias)
Z: 2015 John Chambers <jc:trillian.mit.edu>
M: 2/4
L: 1/16
K: F
% - - - - - - - - - - - - - - - - - - - - - - - - -
c2 |\
c4 A2F2 | f6 e2 | d2c2B2A2 | cBAB GAB=B |\
d2c2A2F2 | f2fe f2ed | dcAB cBGA | F6 |]
C2 |\
C4 DCDE | F2F2 FGAB | c4 dcde | f6 c2 |\
f2e2d2c2 | A2c2d2g2 | f2cA c2BG | (G4 "^D.C."F2) |]
K: Bb
FF |\
F2d2^c2d2 | B4 F2 FF | F2d2^c2d2 | f2e2 c2.F.F |\
F2d2^c2d2 | B2F2F2f2 | d2c2B2A2 | (c4 "^D.C."B2) |]
% - - - - - - - - - - Dance description - - - - - - - - - -
%%begintext align
%% All alamand corners,
%% alamand partners,
%% balance corners,
%% turn partners,
%% all chassa across partners and back,
%% all balance partners and turn,
%% repeat once.
%%endtext
%- - - - - - - - - - - - - - - - - - - - - - - - -
%%sep 1 1 300


